X: 24062
T: Lonesome Eyes
R: waltz
M: 3/4
K: Dmajor
A, D<E|:F3 A d<c|B3 A A<B|F6-|F3 A, D<E|
F3 A d<c|B3 A A<B|E6-|E3 A, D<E|
F3 A d<c|B3 A A<B|F6-|F3 D d<c|
B3 A A<B|E3 D E<F|D6-|1 D3 A, D<E:|2 D3 A a<g||
f3 e f<a|B3 A B<d|F6-|F3 A a<g|
f3 e f<a|B3 A B<d|e6-|e3 A a<g|
f3 e f<a|B3 A B<d|F6-|F3 A d<c|
B3 A A<B|E3 D E<F|D6-|D3 A a<g|
f3 e f<a|B3 A B<d|F6-|F3 A a<g|
f3 e f<a|B3 A B<d|e6-|e3 A d<c|
B3 A A<B|E3 D E<G|F3 E F<D|B3 A d<c|
B3 A A<B|E3 D E<F|D6-|D3||

